X:1
T:Only Our Rivers Run Free
M:3/4
L:1/8
K:D
 A,| D D3 D2| E4 FE| D2 A,4-| A,4 z G| G G3 G2| F4 AF| E6-| E4 z A|\
 B3 B c2| d4 cB| A2 F4-| F4 z D| E4 EE| E4 CA,| B,6-| B,4 z A| B B3 c2|\
 d4- cB| A2 F4-| F4 z A| B4 Bc| d3 e d2| c6-| c3 zd-c| B4 BB| B A3 G2|\
 A2 F4-| F4 z D| E4 EE| E C2 z2 A,| B,4||
